X: 3
T: the Ballydesmond Polka No.3
T: Tom Billy's polka
T: Donncha Lynch's polka
C:
R: polka, march
Z: 2020 John Chambers <jc:trillian.mit.edu>
S: https://www.facebook.com/groups/Fiddletuneoftheday/ 2020-09-13
S: https://www.facebook.com/groups/Fiddletuneoftheday/photos/
N: 
M: 2/4
L: 1/16
K: Ador
AB |:\
"Am"c4 "G"B4 | "Am"A2BA "G"G3A | B2d2 "Em"e2d2 | "G"g4 g3d |\
"Am"e2a2 "Em"g2e2 | "G"d2B2 G2AB | "Am"c2e2 "G"d2B2 | "Am"A4 A4 :|
|:\
"Am"e2a2 a2ge | "G"d2g2 g3d | "Am"e2a2 a2b2 | "G"g4 e3d |\
"Am"e2a2 "Em"gage | "G"d2B2 G2AB | "Am"c2e2 "G"d2B2 | "Am"A4 A4 :|
